src/ui/ai-experience.svg

<?xml version="1.0" encoding="UTF-8"?><svg xmlns="http://www.w3.org/2000/svg" width="32" height="32" viewBox="0 0 32 32"><defs><style>.uuid-fcb526ba-f0b6-487c-b939-a5e3095caf6c{fill:none;}.uuid-be62189d-f064-4f33-995c-a1889c25feb7{fill:#151515;}</style></defs><g id="uuid-84487859-f218-431a-8296-78e5966a18ab"><rect class="uuid-fcb526ba-f0b6-487c-b939-a5e3095caf6c" width="32" height="32"/></g><g id="uuid-74db4ead-2b4e-479c-b772-65eac5dea733"><path class="uuid-be62189d-f064-4f33-995c-a1889c25feb7" d="M26.03711,16.96191c-5.90527-.46777-10.53125-5.09375-10.99951-11-.0415-.51953-.5166-.96094-1.0376-.96094-.52148,0-.99658.44189-1.03809.96191-.46777,5.90527-5.09375,10.53125-11,10.99951-.51953.0415-.96094.5166-.96094,1.0376,0,.52148.44189.99658.96191,1.03809,5.90527.46777,10.53125,5.09375,10.99951,11,.0415.51953.5166.96094,1.0376.96094.52148,0,.99658-.44189,1.03809-.96191.46777-5.90527,5.09375-10.53125,10.99902-10.99902.00049,0,.00049-.00049.00098-.00049.51953-.0415.96094-.5166.96094-1.0376,0-.52148-.44189-.99658-.96191-1.03809ZM14,25.76416c-1.41309-3.54541-4.21875-6.35156-7.76416-7.76416,3.54541-1.41309,6.35156-4.21875,7.76416-7.76416,1.41309,3.54541,4.21875,6.35156,7.76416,7.76416-3.54541,1.41309-6.35156,4.21875-7.76416,7.76416Z"/><path class="uuid-be62189d-f064-4f33-995c-a1889c25feb7" d="M30.09619,6.02539c-1.55029-.34619-2.77539-1.57129-3.12256-3.12451-.104-.45801-.50439-.77783-.97363-.77783s-.86963.31982-.97461.78076c-.34619,1.55029-1.57129,2.77539-3.12451,3.12256-.45801.104-.77783.50439-.77783.97363s.31982.86963.78076.97461c1.55029.34619,2.77539,1.57129,3.12256,3.12451.104.45801.50439.77783.97363.77783s.86963-.31982.97461-.78076c.34619-1.55029,1.57129-2.77539,3.12158-3.12158.00098-.00049.00195-.00049.00293-.00098.45801-.104.77783-.50439.77783-.97363s-.31982-.86963-.78076-.97461ZM26,8.9165c-.48145-.77783-1.13916-1.43555-1.9165-1.9165.77783-.48145,1.43555-1.13916,1.9165-1.9165.48145.77783,1.13916,1.43555,1.9165,1.9165-.77783.48145-1.43555,1.13916-1.9165,1.9165Z"/></g></svg>

<svg xmlns="http://www.w3.org/2000/svg" viewBox="0 0 32 32">
  <path d="M26.037 16.962a11.933 11.933 0 0 1-11-11c-.042-.52-.517-.961-1.038-.961s-.997.442-1.038.962a11.933 11.933 0 0 1-11 11c-.52.042-.961.517-.961 1.038s.442.997.962 1.038a11.933 11.933 0 0 1 11 11c.042.52.517.961 1.038.961s.997-.442 1.038-.962a11.93 11.93 0 0 1 10.999-10.999c.52-.042.961-.517.961-1.038s-.442-.997-.962-1.038ZM14 25.764A13.89 13.89 0 0 0 6.236 18 13.89 13.89 0 0 0 14 10.236 13.89 13.89 0 0 0 21.764 18 13.89 13.89 0 0 0 14 25.764ZM30.096 6.025A4.137 4.137 0 0 1 26.973 2.9c-.104-.458-.504-.778-.974-.778s-.87.32-.975.781a4.137 4.137 0 0 1-3.125 3.123c-.458.104-.778.504-.778.974s.32.87.781.975a4.137 4.137 0 0 1 3.123 3.125c.104.458.504.778.974.778s.87-.32.975-.781a4.135 4.135 0 0 1 3.122-3.122h.003c.458-.104.778-.504.778-.974s-.32-.87-.781-.975ZM26 8.917A5.912 5.912 0 0 0 24.083 7 5.912 5.912 0 0 0 26 5.083 5.912 5.912 0 0 0 27.917 7 5.912 5.912 0 0 0 26 8.917Z"/>
</svg>
